X:560
T: Ritou chulai mantianhong
N: C1979
O: China, Guangxi Yulin
S: II, 452]
R: Shange, Da shange]
M: 2/4
L: 1/16
K: G
B4d4 | e4d4 | e4d4 | e2d2B4- | B4d2e2
E4G2A2 | B4A2B2 | A4E4 | G2E6- | E4z4
A4G2A2 | E4G4 | B4A4 | E2A2G4- | G6AB
E4E4 | B4A2B2 | A4E4 | G2E6
GAB6 | A4E4 | E2G6
GAB6 | A2G2E4- | E4z4

